static/images/mobile/copyright/wikipedia-wordmark-gd.svg

<svg width="120" height="21" viewBox="0 0 120 21" fill="none" xmlns="http://www.w3.org/2000/svg">
<path fill-rule="evenodd" clip-rule="evenodd" d="M99.9797 20.3348V19.7691C99.9804 19.7292 99.9858 19.693 99.996 19.66C100.006 19.626 100.022 19.5955 100.043 19.5685C100.083 19.5154 100.136 19.4883 100.2 19.486L101.143 19.4231C101.692 19.3996 102.102 19.2817 102.372 19.0695C102.643 18.8574 102.778 18.5038 102.777 18.0088V2.35719C102.789 1.81049 102.678 1.45035 102.443 1.27682C102.208 1.10332 101.775 1.00249 101.143 0.974319L100.263 0.911469C100.182 0.910767 100.115 0.888535 100.062 0.84465C100.009 0.800797 99.9821 0.739273 99.9797 0.660004V0.0628662L100.043 0C100.785 0.0164185 101.445 0.0307312 102.023 0.0431824C102.6 0.0558777 103.26 0.0622253 104.003 0.0628662C104.972 0.0603027 105.831 0.0498199 106.58 0.0314331C107.329 0.0131531 108.188 0.00233459 109.157 0C112.249 0.0785828 114.81 1.1236 116.841 3.13503C118.872 5.1465 119.925 7.65295 120 10.6544C119.955 13.2087 119.395 15.1961 118.32 16.6166C117.245 18.0371 115.924 19.0281 114.357 19.5896C112.789 20.151 111.245 20.4203 109.723 20.3974C108.674 20.3966 107.866 20.3916 107.297 20.3811C106.728 20.371 106.215 20.3613 105.758 20.3508C105.301 20.3404 104.716 20.3353 104.003 20.3345C103.25 20.3334 102.571 20.3357 101.964 20.3427C101.357 20.3492 100.716 20.3675 100.043 20.3976L99.9797 20.3348ZM105.323 2.29454V18.0719C105.273 18.5643 105.459 18.8995 105.881 19.0776C106.302 19.2557 107.258 19.3395 108.748 19.329C111.036 19.3958 112.983 18.8694 114.59 17.7498C116.198 16.6301 117.037 14.5165 117.109 11.409C117.121 9.75797 116.834 8.15004 116.246 6.58517C115.658 5.02034 114.693 3.72438 113.351 2.69731C112.009 1.67024 110.213 1.13783 107.963 1.10023C107.179 1.08128 106.546 1.14281 106.065 1.28488C105.584 1.42699 105.336 1.76355 105.323 2.29454ZM16.4492 17.954C15.3563 19.7009 13.2362 20.5992 10.0887 20.649C9.10818 20.6724 8.05899 20.4791 6.94116 20.0694C5.82327 19.6597 4.86255 18.8937 4.05899 17.7716C3.25543 16.6495 2.83481 15.0315 2.79718 12.9176V2.35741C2.80307 1.87946 2.67343 1.53897 2.40823 1.33597C2.14307 1.13303 1.70697 1.0125 1.10001 0.974548L0.251434 0.911682C0.185944 0.91098 0.128326 0.888748 0.0785828 0.844864C0.0288086 0.801025 0.00268555 0.739502 0 0.660233V0.0630798L0.0628662 0.000228882C0.151245 0.00289917 0.658051 0.013382 1.58322 0.031662C2.50842 0.0500488 3.32166 0.0607605 4.02292 0.0630798C4.68683 0.0605164 5.504 0.0500488 6.47437 0.031662C7.44473 0.013382 7.97903 0.00254822 8.07724 0.000228882L8.14011 0.0630798V0.660233C8.13486 0.822617 8.05106 0.907013 7.88867 0.911667L7.07153 0.974518C6.43573 1.0184 5.98657 1.15067 5.724 1.37131C5.46143 1.59198 5.33444 1.92068 5.34293 2.35739V11.8804C5.30823 12.9162 5.37762 13.9481 5.55115 14.9761C5.72464 16.0041 6.21048 16.9418 7.00867 17.789C7.4827 18.2533 8.03534 18.6291 8.66653 18.9165C9.29773 19.204 9.99179 19.3523 10.7487 19.3605C13.3134 19.2583 14.9412 18.4098 15.632 16.8147C16.3228 15.2197 16.6227 13.4911 16.5316 11.629V2.42024C16.5395 1.93967 16.4138 1.58871 16.1545 1.36737C15.8952 1.14609 15.4552 1.01515 14.8345 0.974518L13.9859 0.911667C13.9204 0.910965 13.8628 0.888733 13.813 0.844849C13.7633 0.800995 13.737 0.739487 13.7345 0.660202V0.0630646L13.7973 0.000198364C13.8647 0.00286865 14.2877 0.0133514 15.0663 0.0316315C15.8448 0.0500183 16.5742 0.06073 17.2545 0.0630646C17.8936 0.0605011 18.6112 0.0500183 19.4074 0.0316315C19.7656 0.023407 20.0506 0.0166931 20.2625 0.0115814C20.5216 0.00534058 20.6714 0.0014801 20.7117 0.000198364L20.7746 0.0630646V0.660202C20.7693 0.822586 20.6855 0.906982 20.5231 0.911636L19.706 0.974503C19.0702 1.021 18.621 1.16373 18.3585 1.40271C18.0959 1.64172 17.9689 1.9809 17.9774 2.42023V11.0632C18.0514 13.9101 17.5419 16.2071 16.4492 17.954ZM27.9492 7.07567C27.7469 7.22432 27.6486 7.45349 27.6545 7.76318V18.229C27.6467 18.5754 27.741 18.8491 27.9374 19.0501C28.1339 19.2511 28.4796 19.3755 28.9746 19.4233L29.6346 19.4862C29.6837 19.4862 29.7269 19.5019 29.7642 19.5333C29.8015 19.5648 29.8212 19.6119 29.8232 19.6748V20.3348L29.7917 20.3976C29.7125 20.395 29.2738 20.3845 28.4756 20.3662C27.6775 20.3479 26.9952 20.3371 26.4288 20.3348C25.905 20.3373 25.2397 20.3479 24.4331 20.3662C23.6264 20.3846 23.1812 20.3953 23.0974 20.3976L23.0345 20.3348V19.6748C23.0358 19.6119 23.0567 19.5648 23.0974 19.5333C23.1379 19.5019 23.1903 19.4862 23.2545 19.4862L23.8831 19.4233C24.3931 19.3697 24.748 19.2334 24.9477 19.0148C25.1474 18.7961 25.243 18.5342 25.2345 18.229V7.76318C25.2391 7.42599 25.1357 7.18898 24.9242 7.05211C24.7126 6.91527 24.3656 6.82753 23.8831 6.78889L23.2545 6.72603C23.2398 6.7262 23.2257 6.72583 23.2122 6.72495C23.1975 6.72398 23.1836 6.72241 23.1704 6.72023C23.1629 6.71899 23.1557 6.71756 23.1487 6.71593C23.1451 6.7151 23.1417 6.71423 23.1382 6.7133C23.1342 6.71223 23.1303 6.71109 23.1265 6.70987C23.1162 6.70659 23.1065 6.70282 23.0974 6.69855C23.0567 6.67958 23.0358 6.64676 23.0345 6.60031V5.87744L23.0659 5.81459C23.1491 5.81726 23.6035 5.82773 24.4291 5.84601C25.2548 5.86441 25.9528 5.87511 26.5231 5.87744C27.0305 5.87488 27.6814 5.86441 28.4756 5.84601C29.2699 5.82773 29.7086 5.81693 29.7917 5.81459L29.8232 5.87744V6.56888C29.8232 6.66841 29.7603 6.72137 29.6346 6.72603L28.9746 6.78889C28.4933 6.83147 28.1515 6.92706 27.9492 7.07567ZM40.7617 20.6491C41.9685 20.6526 42.9965 20.4179 43.8457 19.9458C44.6949 19.4738 45.4793 18.7444 46.1989 17.7576L45.5704 17.2547C44.8756 18.0941 44.1829 18.6939 43.4921 19.0541C42.8013 19.4142 41.9436 19.5897 40.9189 19.5805C39.0495 19.4999 37.7517 18.7889 37.0256 17.4473C36.2995 16.1056 35.9525 14.6167 35.9845 12.9804C36.0376 10.3993 36.5444 8.655 37.5049 7.74748C38.4655 6.83998 39.5615 6.41568 40.7932 6.47461C42.1531 6.49161 43.1968 6.83475 43.9243 7.50389C44.6517 8.17308 45.1061 9.06619 45.2875 10.1832L46.1047 10.0889C46.0084 9.44595 45.9259 8.79117 45.8571 8.12462C45.7884 7.45807 45.7452 6.77188 45.7275 6.06601C45.1487 6.04506 44.4599 5.96124 43.6611 5.81458C42.8622 5.66792 41.8434 5.58412 40.6046 5.56316C38.4831 5.59854 36.7388 6.31352 35.3717 7.70818C34.0045 9.10284 33.2974 10.965 33.2502 13.2947C33.2607 15.1824 33.9076 16.8599 35.1909 18.3273C36.4743 19.7946 38.3312 20.5685 40.7617 20.6491ZM54.7574 7.07567C54.5551 7.22432 54.4568 7.45349 54.4628 7.76318V18.229C54.4549 18.5754 54.5492 18.8491 54.7456 19.0501C54.942 19.2511 55.2878 19.3755 55.7828 19.4233L56.4428 19.4862C56.4919 19.4862 56.5351 19.5019 56.5724 19.5333C56.6098 19.5648 56.6294 19.6119 56.6314 19.6748V20.3348L56.5999 20.3976C56.5207 20.395 56.082 20.3845 55.2838 20.3662C54.4857 20.3479 53.8034 20.3371 53.237 20.3348C52.7132 20.3373 52.048 20.3479 51.2413 20.3662C50.4346 20.3846 49.9894 20.3953 49.9056 20.3976L49.8427 20.3348V19.6748C49.844 19.6119 49.865 19.5648 49.9056 19.5333C49.9304 19.5141 49.9596 19.5008 49.9933 19.4933C50.0146 19.4886 50.0378 19.4862 50.0627 19.4862L50.6913 19.4233C51.2014 19.3697 51.5562 19.2334 51.756 19.0148C51.9557 18.7961 52.0512 18.5342 52.0427 18.229V7.76318C52.0473 7.42599 51.9439 7.18898 51.7324 7.05211C51.5209 6.91527 51.1739 6.82753 50.6913 6.78889L50.0627 6.72603C49.9985 6.72673 49.9462 6.71753 49.9056 6.69855C49.8943 6.6933 49.8846 6.68701 49.8764 6.67966C49.8709 6.67473 49.8661 6.66933 49.8619 6.66345C49.8578 6.65762 49.8543 6.65132 49.8515 6.64456C49.8461 6.63153 49.8432 6.61678 49.8427 6.60031V5.87744L49.8741 5.81459C49.9212 5.8161 50.0869 5.8201 50.3712 5.8266L51.2374 5.84601C52.063 5.86441 52.761 5.87511 53.3313 5.87744C53.8388 5.87488 54.4896 5.86441 55.2838 5.84601C56.0781 5.82773 56.5168 5.81693 56.5999 5.81459L56.6314 5.87744V6.56888C56.6314 6.66841 56.5685 6.72137 56.4428 6.72603L55.7828 6.78889C55.3015 6.83147 54.9597 6.92706 54.7574 7.07567ZM64.4584 7.82603C64.4427 7.42271 64.5685 7.13724 64.8356 6.9696C65.1027 6.80199 65.6056 6.72081 66.3442 6.72603C67.2235 6.6946 67.932 6.90675 68.4696 7.36247C69.0071 7.81819 69.2834 8.70607 69.2985 10.0261C69.2998 11.2328 69.0693 12.1272 68.6071 12.7093C68.1448 13.2914 67.4429 13.5808 66.5013 13.5775C66.1805 13.581 65.84 13.5658 65.4799 13.5304C65.1198 13.495 64.7793 13.4164 64.4584 13.2947V7.82603ZM62.0384 18.3862C62.0456 18.6815 61.9526 18.908 61.7595 19.0658C61.5663 19.2236 61.2298 19.3323 60.7498 19.3919L60.0898 19.4862C60.061 19.4925 60.0355 19.5 60.0133 19.5088C59.9871 19.5192 59.9654 19.5313 59.9484 19.5451C59.917 19.5706 59.9012 19.6139 59.9012 19.6747V20.3347L59.9327 20.3976C60.0125 20.3953 60.4421 20.3846 61.2213 20.3662C62.0004 20.3479 62.65 20.3373 63.1699 20.3347C63.7415 20.3371 64.4447 20.3479 65.2795 20.3662C66.1143 20.3844 66.574 20.3949 66.6585 20.3976L66.6899 20.3347V19.6747C66.6886 19.6139 66.6676 19.5707 66.627 19.5451C66.5865 19.5196 66.5341 19.4999 66.4699 19.4862L65.8413 19.3919C65.3437 19.3245 64.9875 19.2236 64.7727 19.0894C64.558 18.9552 64.4532 18.7208 64.4584 18.3862V14.1747C64.7393 14.2978 65.0418 14.3816 65.366 14.4261C65.6901 14.4706 66.0476 14.4915 66.4385 14.489C68.6149 14.4052 70.0685 13.8342 70.7993 12.7761C71.53 11.718 71.8678 10.6756 71.8128 9.64893C71.8717 8.77415 71.5496 7.93082 70.8464 7.1189C70.1432 6.30699 68.7053 5.87222 66.5327 5.81459C65.9415 5.81693 65.3561 5.82773 64.7767 5.84601C64.1972 5.86441 63.6825 5.87488 63.2327 5.87744C62.7285 5.87511 62.134 5.86441 61.4491 5.84601C60.7642 5.82773 60.2797 5.81726 59.9955 5.81459L59.9327 5.84601V6.56888C59.93 6.60298 59.9431 6.63698 59.972 6.67097C60.0008 6.70508 60.061 6.72336 60.1527 6.72592C60.8775 6.75211 61.3764 6.82544 61.6495 6.94592C61.9225 7.06641 62.0522 7.35974 62.0384 7.82593V18.3862ZM85.2658 20.3662C84.6268 20.3479 84.0427 20.3371 83.5137 20.3348L78.0136 20.3347C77.4715 20.3372 76.8351 20.3478 76.1043 20.3661C75.3736 20.3845 74.9729 20.3952 74.9022 20.3975L74.8708 20.3347V19.6432C74.8688 19.6092 74.8806 19.5751 74.9061 19.5411C74.9316 19.5071 74.9827 19.4885 75.0593 19.4862L75.7822 19.4233C76.2608 19.3651 76.5921 19.2066 76.7761 18.948C76.9601 18.6893 77.0479 18.3973 77.0393 18.0719V7.70033C77.042 7.35004 76.9424 7.11563 76.7408 6.9971C76.5391 6.87863 76.2196 6.80914 75.7822 6.78889L75.0593 6.72603C75.0446 6.72325 75.0307 6.72037 75.0179 6.71738C74.9699 6.70625 74.9351 6.69366 74.9133 6.6796C74.9051 6.67433 74.8988 6.66885 74.8943 6.66318C74.8747 6.63826 74.8668 6.61731 74.8707 6.60031V5.87744L74.9022 5.81459C74.9847 5.81726 75.4325 5.82773 76.2458 5.84601C77.059 5.86441 77.7426 5.87511 78.2965 5.87744H82.9166C83.4613 5.87488 84.1082 5.86441 84.8573 5.84601C85.6064 5.82773 86.0175 5.81693 86.0909 5.81459L86.1537 5.87744C86.1734 6.55122 86.2284 7.19945 86.3188 7.82211C86.4091 8.44481 86.5113 9.05374 86.6252 9.64893L85.8394 9.77464C85.6908 9.14803 85.4066 8.53125 84.987 7.92426C84.5672 7.31731 83.8666 6.9912 82.8851 6.94603H80.3708C80.0716 6.94408 79.845 7.00301 79.6912 7.12282C79.5373 7.24266 79.46 7.43517 79.4594 7.70033V12.2575H81.8166C82.2448 12.2549 82.5433 12.1659 82.7123 11.9904C82.8812 11.8149 82.9912 11.5687 83.0423 11.2518L83.2309 10.5918C83.2308 10.4923 83.2937 10.4405 83.4194 10.4346H83.9537C83.9602 10.4346 83.9662 10.435 83.9716 10.4358C83.9774 10.4365 83.9825 10.4377 83.9869 10.4393C83.9918 10.441 83.996 10.4433 83.9994 10.446C84.002 10.448 84.0042 10.4504 84.006 10.4531C84.007 10.4547 84.008 10.4564 84.0087 10.4582C84.0152 10.474 84.0178 10.4975 84.0165 10.5289C83.9969 10.7239 83.9762 10.9274 83.9542 11.1392C83.9365 11.3101 83.918 11.4864 83.8987 11.6682C83.8554 12.0755 83.8319 12.471 83.8279 12.8547C83.8319 13.2436 83.8554 13.6129 83.8987 13.9626C83.9419 14.3122 83.9812 14.6658 84.0165 15.0233L83.9537 15.0861H83.4194C83.2675 15.0809 83.1941 15.0285 83.1994 14.929L83.0422 14.2376C82.9872 13.922 82.8694 13.681 82.6887 13.5147C82.5079 13.3483 82.2172 13.2644 81.8165 13.2633H79.4593V18.0719C79.4619 18.3829 79.5431 18.6566 79.7029 18.893C79.8626 19.1293 80.0853 19.2537 80.3708 19.2662H83.3565C84.1534 19.2583 84.7832 19.0226 85.2462 18.559C85.7091 18.0955 86.0325 17.4512 86.2166 16.6262L87.0023 16.7204L86.3737 20.3348L86.3109 20.3976C86.2532 20.395 85.9049 20.3845 85.2658 20.3662ZM95.0126 7.76318C95.0067 7.45349 95.1049 7.22432 95.3073 7.07567C95.5096 6.92706 95.8514 6.83147 96.3327 6.78889L96.9927 6.72603C97.1184 6.72137 97.1812 6.66841 97.1812 6.56888V5.87744L97.1498 5.81459C97.1167 5.81552 97.0274 5.81779 96.8819 5.82133C96.6615 5.82671 96.3121 5.83499 95.8337 5.84601C95.0395 5.86441 94.3886 5.87488 93.8812 5.87744C93.3109 5.87511 92.6129 5.86441 91.7872 5.84601C90.9616 5.82773 90.5072 5.81726 90.424 5.81459L90.3926 5.87744V6.60031C90.3939 6.64676 90.4148 6.67958 90.4554 6.69855C90.4777 6.70895 90.5035 6.71642 90.5328 6.72092C90.557 6.72464 90.5836 6.72635 90.6126 6.72603L91.2411 6.78889C91.7237 6.82753 92.0707 6.91527 92.2823 7.05211C92.4937 7.18898 92.5972 7.42599 92.5926 7.76318V18.229C92.6011 18.5342 92.5055 18.7961 92.3058 19.0148C92.1061 19.2334 91.7512 19.3697 91.2411 19.4233L90.6126 19.4862C90.5885 19.4862 90.5661 19.4884 90.5454 19.4928C90.5108 19.5002 90.4808 19.5137 90.4554 19.5333C90.4309 19.5523 90.4135 19.5771 90.4034 19.6076C90.3967 19.6275 90.3931 19.6499 90.3926 19.6748V20.3348L90.4554 20.3976C90.5392 20.3953 90.9845 20.3846 91.7912 20.3662C92.5978 20.3479 93.2631 20.3373 93.7869 20.3348C94.3533 20.3371 95.0356 20.3479 95.8337 20.3662C96.6319 20.3845 97.0706 20.395 97.1498 20.3976L97.1812 20.3348V19.6748C97.1793 19.6119 97.1596 19.5648 97.1223 19.5333C97.085 19.5019 97.0418 19.4862 96.9927 19.4862L96.3327 19.4233C95.8376 19.3755 95.4919 19.2511 95.2955 19.0501C95.0991 18.8491 95.0048 18.5754 95.0126 18.229V7.76318Z" fill="black"/>
</svg>

<svg xmlns="http://www.w3.org/2000/svg" width="120" height="21" fill="none"><path fill="#000" fill-rule="evenodd" d="M99.98 20.335v-.566a.39.39 0 0 1 .016-.109.274.274 0 0 1 .047-.091.197.197 0 0 1 .157-.083l.943-.063c.549-.023.959-.141 1.229-.353.271-.213.406-.566.405-1.061V2.357c.012-.547-.099-.907-.334-1.08-.235-.174-.668-.275-1.3-.303l-.88-.063a.309.309 0 0 1-.201-.066.236.236 0 0 1-.082-.185V.063l.063-.063 1.98.043c.577.013 1.237.02 1.98.02.969-.003 1.828-.013 2.577-.032.749-.018 1.608-.029 2.577-.031 3.092.079 5.653 1.124 7.684 3.135 2.031 2.011 3.084 4.518 3.159 7.52-.045 2.554-.605 4.541-1.68 5.962-1.075 1.42-2.396 2.411-3.963 2.973-1.568.561-3.112.83-4.634.807a148.456 148.456 0 0 1-3.965-.046 159.073 159.073 0 0 0-3.794-.008c-.607.006-1.248.024-1.921.055l-.063-.063Zm5.343-18.04v15.777c-.05.492.136.828.558 1.006.421.178 1.377.262 2.867.251 2.288.067 4.235-.46 5.842-1.58 1.608-1.119 2.447-3.232 2.519-6.34a13.327 13.327 0 0 0-.863-4.824 8.632 8.632 0 0 0-2.895-3.888c-1.342-1.027-3.138-1.56-5.388-1.597-.784-.019-1.417.043-1.898.185-.481.142-.729.479-.742 1.01ZM16.449 17.954c-1.093 1.747-3.213 2.645-6.36 2.695-.98.023-2.03-.17-3.148-.58-1.118-.41-2.078-1.175-2.882-2.297-.804-1.122-1.224-2.74-1.262-4.854V2.358c.006-.479-.124-.819-.389-1.022-.265-.203-.701-.324-1.308-.361L.251.912A.258.258 0 0 1 .08.845.245.245 0 0 1 0 .66V.063L.063 0c.088.003.595.013 1.52.032.925.018 1.739.029 2.44.031C4.687.061 5.504.05 6.474.032L8.077 0l.063.063V.66c-.005.163-.089.247-.251.252l-.817.063c-.636.043-1.085.176-1.348.396-.263.221-.39.55-.381.986v9.523a15.445 15.445 0 0 0 .208 3.096c.174 1.028.66 1.966 1.458 2.813.474.464 1.026.84 1.658 1.127a5.1 5.1 0 0 0 2.082.444c2.564-.102 4.192-.95 4.883-2.545.69-1.595.99-3.324.9-5.186V2.42c.008-.48-.118-.831-.378-1.053-.259-.22-.699-.352-1.32-.392l-.848-.063a.258.258 0 0 1-.173-.067.244.244 0 0 1-.079-.185V.063L13.798 0c.068.003.49.013 1.27.032.778.018 1.507.029 2.188.031.639-.002 1.356-.013 2.152-.031A755.421 755.421 0 0 0 20.712 0l.063.063V.66c-.006.163-.09.247-.252.252l-.817.063c-.636.046-1.085.189-1.348.428-.262.239-.39.578-.38 1.017v8.643c.073 2.847-.436 5.144-1.529 6.891Zm11.5-10.878c-.202.148-.3.377-.295.687V18.23c-.007.346.087.62.283.821.197.201.543.325 1.038.373l.66.063c.049 0 .092.016.13.047.037.032.056.079.058.142v.66l-.031.063c-.08-.003-.518-.014-1.316-.032-.799-.018-1.48-.029-2.047-.031-.524.002-1.19.013-1.996.031l-1.336.032-.063-.063v-.66c.002-.063.023-.11.063-.142a.25.25 0 0 1 .157-.047l.63-.063c.51-.053.864-.19 1.064-.408.2-.219.295-.48.287-.786V7.763c.004-.337-.1-.574-.31-.71-.212-.138-.56-.225-1.042-.264l-.628-.063a.552.552 0 0 1-.117-.013.248.248 0 0 1-.04-.014.103.103 0 0 1-.063-.099v-.723l.03-.062 1.364.031c.826.018 1.524.03 2.094.031.508-.002 1.158-.013 1.953-.031l1.316-.031.031.062v.692c0 .1-.063.152-.188.157l-.66.063c-.482.042-.824.138-1.026.287Zm12.813 13.573c1.206.004 2.234-.231 3.084-.703.849-.472 1.633-1.202 2.353-2.188l-.629-.503c-.694.84-1.387 1.439-2.078 1.8-.69.36-1.548.535-2.573.526-1.87-.081-3.167-.792-3.893-2.134-.727-1.341-1.074-2.83-1.042-4.467.054-2.58.56-4.325 1.52-5.233.962-.907 2.058-1.331 3.29-1.272 1.36.017 2.403.36 3.13 1.029.728.67 1.182 1.562 1.364 2.68l.817-.095a43.216 43.216 0 0 1-.248-1.964 26.579 26.579 0 0 1-.13-2.059 14.62 14.62 0 0 1-2.066-.251c-.799-.147-1.818-.23-3.056-.252-2.122.036-3.866.75-5.233 2.145-1.367 1.395-2.075 3.257-2.122 5.587.01 1.887.658 3.565 1.94 5.032 1.284 1.468 3.141 2.241 5.572 2.322ZM54.757 7.076c-.202.148-.3.377-.294.687V18.23c-.008.346.086.62.283.821.196.201.542.325 1.037.373l.66.063c.049 0 .092.016.13.047.037.032.056.079.058.142v.66l-.031.063c-.08-.003-.518-.014-1.316-.032-.798-.018-1.48-.029-2.047-.031-.524.002-1.189.013-1.996.031l-1.335.032-.063-.063v-.66c.001-.063.022-.11.063-.142a.219.219 0 0 1 .087-.04.322.322 0 0 1 .07-.007l.628-.063c.51-.053.865-.19 1.065-.408.2-.219.295-.48.287-.786V7.763c.004-.337-.1-.574-.31-.71-.212-.138-.56-.225-1.042-.264l-.628-.063a.363.363 0 0 1-.157-.027.117.117 0 0 1-.044-.036.098.098 0 0 1-.01-.018.125.125 0 0 1-.01-.045v-.723l.032-.062.497.012.866.019c.826.018 1.524.03 2.094.031a111.88 111.88 0 0 0 1.953-.031l1.316-.031.031.062v.692c0 .1-.063.152-.188.157l-.66.063c-.482.042-.823.138-1.026.287Zm9.701.75c-.015-.403.11-.689.378-.856.267-.168.77-.25 1.508-.244.88-.031 1.588.18 2.126.636.537.456.813 1.344.829 2.664 0 1.207-.23 2.101-.692 2.683-.462.582-1.164.872-2.106.869a9.405 9.405 0 0 1-1.021-.048 3.96 3.96 0 0 1-1.022-.235V7.826Zm-2.42 10.56c.008.296-.085.522-.278.68-.194.158-.53.266-1.01.326l-.66.094a.496.496 0 0 0-.077.023.248.248 0 0 0-.065.036c-.031.026-.047.069-.047.13v.66l.032.063c.08-.003.51-.013 1.288-.032.78-.018 1.429-.029 1.949-.031.572.002 1.275.013 2.11.031.834.018 1.294.029 1.379.032l.03-.063v-.66c0-.061-.021-.104-.062-.13a.485.485 0 0 0-.157-.059l-.629-.094c-.497-.067-.853-.168-1.068-.303-.215-.134-.32-.368-.315-.703v-4.211c.281.123.584.207.908.251.324.045.682.066 1.073.063 2.176-.084 3.63-.655 4.36-1.713.731-1.058 1.069-2.1 1.014-3.127.059-.875-.263-1.718-.967-2.53-.703-.812-2.14-1.247-4.313-1.304-.591.002-1.177.013-1.756.031-.58.018-1.095.029-1.544.031a81.857 81.857 0 0 1-1.784-.031 97.093 97.093 0 0 0-1.453-.031l-.063.031v.723c-.003.034.01.068.039.102.029.034.089.052.18.055.725.026 1.224.1 1.498.22.273.12.402.414.388.88v10.56Zm23.228 1.98a72.818 72.818 0 0 0-1.752-.031h-5.5a95.22 95.22 0 0 0-1.91.031c-.73.018-1.131.03-1.202.032l-.031-.063v-.692a.154.154 0 0 1 .035-.102c.026-.034.077-.053.153-.055l.723-.063c.479-.058.81-.216.994-.475.184-.259.272-.55.263-.876V7.7c.003-.35-.097-.584-.298-.703-.202-.118-.521-.188-.959-.208l-.723-.063a1.003 1.003 0 0 1-.041-.009.347.347 0 0 1-.105-.037.077.077 0 0 1-.019-.017c-.02-.025-.027-.046-.023-.063v-.723l.031-.062 1.344.031c.813.018 1.497.03 2.05.031h4.62a99.612 99.612 0 0 0 1.941-.031l1.234-.031.063.062c.02.674.074 1.322.165 1.945.09.623.192 1.232.306 1.827l-.786.126c-.148-.627-.432-1.244-.852-1.85-.42-.608-1.12-.934-2.102-.979h-2.514c-.3-.002-.526.057-.68.177-.154.12-.231.312-.232.577v4.558h2.358c.428-.003.726-.092.895-.268.17-.175.28-.421.33-.738l.189-.66c0-.1.063-.152.188-.157h.535a.123.123 0 0 1 .033.004c.005.002.009.004.012.007a.03.03 0 0 1 .01.012c.006.016.009.04.007.07a184 184 0 0 1-.117 1.14c-.044.408-.067.803-.071 1.187.004.389.027.758.07 1.108.044.35.083.703.118 1.06l-.062.063h-.535c-.151-.005-.225-.058-.22-.157l-.157-.691c-.055-.316-.173-.557-.353-.723-.181-.167-.472-.25-.872-.252h-2.358v4.809c.003.31.084.585.244.821.16.236.382.36.668.373h2.986c.796-.008 1.426-.243 1.89-.707.462-.463.785-1.108.97-1.933l.785.094-.628 3.615-.063.063c-.058-.003-.406-.014-1.045-.032Zm9.747-12.603c-.006-.31.092-.539.294-.687.203-.149.544-.245 1.026-.287l.66-.063c.125-.005.188-.058.188-.157v-.692l-.031-.062-.268.006-1.048.025c-.794.018-1.445.029-1.953.031-.57-.002-1.268-.013-2.094-.031l-1.363-.031-.031.062V6.6c0 .047.022.08.062.099.023.01.049.017.078.022.024.004.05.005.08.005l.628.063c.483.039.83.126 1.041.263.212.137.315.374.31.711V18.23c.01.305-.087.567-.286.786-.2.218-.555.355-1.065.408l-.628.063a.323.323 0 0 0-.068.007.22.22 0 0 0-.09.04.152.152 0 0 0-.052.075.224.224 0 0 0-.01.067v.66l.062.063 1.336-.032c.807-.018 1.472-.029 1.996-.031.566.002 1.249.013 2.047.031.798.018 1.237.029 1.316.032l.031-.063v-.66c-.002-.063-.021-.11-.059-.142a.195.195 0 0 0-.13-.047l-.66-.063c-.494-.047-.84-.172-1.036-.373-.197-.2-.291-.475-.283-.821V7.763Z" clip-rule="evenodd"/></svg>
